X:1
T:1 INFANT JOY
T:4 LONDON
T:TEN BLAKE SONGS
T:R. VAUGHAN WILLIAMS
T:WILLIAM BLAKE (1757-1827)
T:FOR VOICE AND OBOE
T:(Tenor)
T:Oboe tacet
C:R. VAUGHAN wILLIAMS
Z:WILLIAM BLAKE 51757-1827°
L:1/8
Q:1/4=60
M:3/4
K:F
V:1 treble-8 nm="Voice"
V:1
"^In free time" z!p! d cd Ac | f3 _e d2 | c2 A2 G2 | F4 EA | B3 (A B2- | BA B3) A | %6
w: I wan- der thro' each|chart- er'd street|Near where the|chart- er'd _|Thames does flow,|_ _ _ And|
 _A3 F =A7/8A/8B | _c3 B _A2 | _AB _c2 A2 | _c_d (=d2 =c2 | =B3) _A F7/8F/8G | A3 F A7/8A/8B | %12
w: mark in ev- e- ry|face I meet|Marks of weak- ness,|marks of woe. _|_ In ev- e- ry|cry of ev- e- ry|
 _c3 _A A7/8A/8B | _c_d =d3 =c | =B3 _B G7/8A/8A | BA c7/8c/8c f2- | f_e d2 c2 | AG FD (_E2- | %18
w: Man, In ev- e- ry|In- fant's cry of|fear, In ev- e- ry|voice, in ev- e- ry ban,|_ The mind- forg'd|ma- na- cles I hear,|
 ED _E2 D2- | !fermata!D2) D_E FA | f3 _e d2 | c7/8c/8d AG EA | (BA B2) AA | _AF A2 B2 | _c4 cd | %25
w: _ _ _ _|* How the chim- ney|sweep- er's cry|ev- e- ry black- 'ning church ap-|pals; _ _ And the|hap- less sol- dier's|sigh Runs in|
 d3 _d _c__B | _A3 A FG | _AF B3 B | _c2 _AB c_d | d3 ^c =B2 | BA GA Bc | f4 _e2 | c'd' a3 g | %33
w: blood down pa- lace|walls. But most thro'|mid- night streets I|hear How the youth- ful|har- lot's curse|Blasts the new- born In- fant's|tear, And|blights with plagues the|
 fd (_e3 d | _e2 !fermata!d4- | d) z z2 z2 |] %36
w: mar- riage hearse. _|_ _||

